X:82
T:Big Round Band: Set H2
T:Eileen Og
Q:1/2=84
M:2/2
R:Reel
L:1/8
K:Am
P:A
|: "Am"A2A>B c2c>d | e>fe>d c>AA2 | "G"G2G>A B2B>c | d>ed>c B>GG2 |
"Am"A2A>B c2c>d | e>fe>d c>Ac>d | "Em"e2e>f "E7"e>dc>B | "Am"c2"Em"A2 "Am"A4 :|
P:B
|: "F"a4 "G"a4 | "C"g>ec>d e4 | "Em"e>BB>B B2d2 | "Am"c>Bc>d e4 |
"F"a4 "G"a4 | "C"g>ec>d e4 | "Em"e>de>f "E7"e>dc>B | "Am"c2"Em"A2 "Am"A4 :|
N:Replace by blank line and X field
T:Puddleglum's Misery
C:John Kirkpatrick
N:World Copyright \251 Squeezer Music.  www.johnkirkpatrick.co.uk
Q:1/2=84
M:2/2
R:Reel
L:1/8
K:Am
P:A
|: "E7"E2e2 _e2d2 | "Am"c>BA>B c2B>A | "E7"^G>EG>B e>BG>E | "Am"A>EA>c e>cA>c |
"E7"E2e2 _e2d2 | "Am"c>BA>B c2B>A | "E7"^G>EG>B e>dc>B | "Am"A2A2 A4 :|
P:B
|: "G"G2g2 ^f2=f2 | "C"e>dc>d e2d>c | "G"B>GB>d g>dB>G | "C"c>Bc>d e>dc>A |
"G"G2g2 ^f2=f2 | "C"e>dc>d e4 | "E7"(3EFE ^D>E e>=dc>B | "Am"A2A2 A4 :|

